archdroid-icon-theme/Archdroid-Lime/actions/scalable/document-import.svg

<svg xmlns="http://www.w3.org/2000/svg" fill="#CDDC39" viewBox="0 0 48 48"><path d="m13 6c-2.21 0-4 1.79-4 4v9h4v-9h22v28h-22v-9h-4v9c0 2.21 1.79 4 4 4h22c2.21 0 4-1.79 4-4v-28c0-2.21-1.79-4-4-4h-22m7 10v6h-20v4h20v6l8-8-8-8"/></svg>

<?xml version="1.0" encoding="UTF-8" standalone="no"?>
<svg
   xmlns:dc="http://purl.org/dc/elements/1.1/"
   xmlns:cc="http://creativecommons.org/ns#"
   xmlns:rdf="http://www.w3.org/1999/02/22-rdf-syntax-ns#"
   xmlns:svg="http://www.w3.org/2000/svg"
   xmlns="http://www.w3.org/2000/svg"
   xmlns:sodipodi="http://sodipodi.sourceforge.net/DTD/sodipodi-0.dtd"
   xmlns:inkscape="http://www.inkscape.org/namespaces/inkscape"
   fill="#CDDC39"
   width="48"
   height="48"
   viewBox="0 0 48 48"
   id="svg2"
   version="1.1"
   inkscape:version="0.91 r13725"
   sodipodi:docname="document-import.svg">
  <metadata
     id="metadata10">
    <rdf:RDF>
      <cc:Work
         rdf:about="">
        <dc:format>image/svg+xml</dc:format>
        <dc:type
           rdf:resource="http://purl.org/dc/dcmitype/StillImage" />
        <dc:title></dc:title>
      </cc:Work>
    </rdf:RDF>
  </metadata>
  <defs
     id="defs8" />
  <sodipodi:namedview
     pagecolor="#ffffff"
     bordercolor="#666666"
     borderopacity="1"
     objecttolerance="10"
     gridtolerance="10"
     guidetolerance="10"
     inkscape:pageopacity="0"
     inkscape:pageshadow="2"
     inkscape:window-width="1366"
     inkscape:window-height="713"
     id="namedview6"
     showgrid="false"
     inkscape:snap-page="true"
     inkscape:snap-bbox="true"
     inkscape:bbox-paths="true"
     inkscape:bbox-nodes="true"
     inkscape:zoom="3.4766083"
     inkscape:cx="9.8526324"
     inkscape:cy="25.268224"
     inkscape:window-x="0"
     inkscape:window-y="30"
     inkscape:window-maximized="1"
     inkscape:current-layer="svg2" />
  <path
     d="M 13 6 C 10.79 6 9 7.79 9 10 L 9 19 L 13 19 L 13 10 L 35 10 L 35 38 L 13 38 L 13 29 L 9 29 L 9 38 C 9 40.21 10.79 42 13 42 L 35 42 C 37.21 42 39 40.21 39 38 L 39 10 C 39 7.79 37.21 6 35 6 L 13 6 z M 20 16 L 20 22 L 0 22 L 0 26 L 20 26 L 20 32 L 28 24 L 20 16 z "
     id="path4158" />
</svg>
